X:1
T:Justus es Domine
T:Justus es Domine
T:Orlando di Lasso
T:Source : Magnum opus musicum(1604)---München---First print A.Berg---1575. Editor : André Vierendeels (09/04/15).
T:Notes : Original clefs  : G2, C3, F3 Editorial accidentals above the staff Original note values have been halved Music collected by Ferdinando and Rodolpho di Lasso 
C:Orlando di Lasso
%%score [ 1 2 3 ]
L:1/8
Q:1/4=119
M:2/2
K:F
V:1 treble nm="Superius" snm="S"
V:2 treble nm="Altus" snm="A"
V:3 bass nm="Bassus" snm="B"
V:1
 z4 c4- | c4 A4 | G4 z2 A2- | A2 A2 B4 | z2 G4 G2 | A4 z2 A2 | d4 B2 A2 | B3 B Bc de | f4 c4 | %9
w: Ju-|* stus|es Do-|* mi- ne,|Do- mi-|ne et|re- ctum ju-|di- ci- um _ _ _|_ tu-|
 A4 z2 G2 | A6 B2 | z2 G2 B3 B | A4 z2 F2 | G2 B4 A2 | FG AB c4 | F3 G A3 G/A/ | Bc d3 c c2- | %17
w: um, man-|da sti|ju- sti- ti-|am, te-|sti- mo- ni-|a _ _ _ _|tu- * * * *||
 cB/A/ B2 c4 | z8 | c4 d2 d2 | f4 e2 A2- | AF B2 A2 F2 | G2 G2 B2 A2- | AB c2 G2 A2- | %24
w: * * * * a,||et ve- ri-|ta- tem tu-|* * * am, et|ve- ri- ta- tem|_ _ _ tu- *|
 AF B3 A AG/F/ | G2 c2 d2 d2 | f4 f2 B2- | BA c4 GA | Bc de f2 d2- | dc c3 B/A/ B2 | c2 G2 A2 A2 | %31
w: |am et ve- ri-|ta- tem tu-|* * * am _|_ _ _ _ _ ni-||mis, et ve- ri-|
 F2 E2 A2 G2 | AG FE FE F2 | !fermata!E8 |] %34
w: ta- tem tu- am|ni- * * * * * *|mis.|
V:2
 C8 | A,4 C4 | z2 C4 C2 | D4 z2 B,2- | B,2 B,2 C4 | z2 C2 F4- | F2 D4 D2 | D2 _E2 D2 B,2- | %8
w: Ju-|stus es|Do- mi-|ne, Do-|* mi- ne|et re-|* ctum ju-|di- ci- um tu-|
 B,A, A3 GFE | F4 C4 | z2 C2 D4 | _E4 z2 D2 | F3 F D4- | D4 z2 C2 | D2 F4 E2 | D3 E F2 E2 | %16
w: |* um,|man- da-|sti ju-|sti- ti- am,|_ te-|sti- mo- ni-|a _ _ tu-|
 D3 E FEED/C/ | D4 z2 C2 | D2 D2 F2 E2 | F4 F2 F2- | F2 B,2 z2 C2 | D2 D2 F2 D2 | (3C3 D E2 F4 | %23
w: |a, et|ve- ri- ta- tem|tu- am ni-|* mis et|ve- ri- ta- tem|tu- * * am|
 z4 C4 | D2 D2 F4 | E2 F4 F2 | z2 B,2 D2 D2 | F4 E4 | D2 B,3 A, F2 | E3 D/C/ D4 | C8- | C8- | C8- | %33
w: et|ve- ri- ta-|tem tu- am|et ve- ri-|ta- tem|tu- am _ _|ni- * * *|mis.|_||
 !fermata!C8 |] %34
w: |
V:3
 z8 | F,8 | E,4 F,4 | z2 D,4 D,2 | _E,4 z2 C,2 | F,4 D,2 D,2 | B,3 A, G,2 ^F,2 | G,4 G,4 | D,4 z4 | %9
w: |Ju-|stus es|Do- mi-|ne, et|re- ctum ju-|di- * * ci-|um tu-|um,|
 z2 D,2 E,4 | F,4 z2 G,2 | C3 C G,4 | z2 F,2 G,2 B,2- | B,2 G,2 (3D,3 E, F,2 | B,2 F,2 z2 A,2 | %15
w: man- da-|sti ju-|sti- ti- am|te- sti- mo-|* ni- a _ _|tu- a, te-|
 B,2 D4 C2 | G,2 B,2 A,4 | z2 G,2 A,2 A,2 | B,4 A,4 | z2 A,2 B,2 B,2 | D4 C2 F,2- | F,D, G,2 D,4 | %22
w: sti mo- ni-|a tu- a|et ve- ri-|ta- tem,|et ve- ri-|ta- tem tu-|* * * am,|
 z2 C,2 D,2 D,2 | F,4 E,2 F,2- | F,D, G,2 D,4 |"^-natural""^-natural" z2 A,2 B,2 B,2 | %26
w: et ve- ri-|ta- tem tu-|* * * am|et ve- ri-|
 D3 C B,A, G,2 | D,2 A,3 B, C2 | G,3 F,/E,/ D,4 | A,4 G,4 | z2 E,2 F,2 F,2 | A,3 G, F,2 E,2 | %32
w: ta- * * * *|tem tu- * *|* * * am|ni- mis,|et ve- ri-|ta- * * tem|
 F,2 A,2 A,,4 | !fermata!C,8 |] %34
w: tu- am ni-|mis.|

